icons/src/svg/document_tool.svg

<svg width="32" height="32" viewBox="0 0 32 32" fill="none" xmlns="http://www.w3.org/2000/svg">
<path fill-rule="evenodd" clip-rule="evenodd" d="M6 4C6 2.89543 6.89543 2 8 2H15.5858C16.1162 2 16.6249 2.21071 17 2.58579L25.4142 11C25.7893 11.3751 26 11.8838 26 12.4142V28C26 29.1046 25.1046 30 24 30H18C17.4477 30 17 29.5523 17 29C17 28.4477 17.4477 28 18 28H24V13H17C15.8954 13 15 12.1046 15 11V4H8V12C8 12.5523 7.55228 13 7 13C6.44772 13 6 12.5523 6 12V4ZM17 5.41421V11H22.5858L17 5.41421Z" fill="#0D0F13"/>
<path fill-rule="evenodd" clip-rule="evenodd" d="M7.41593 16.0977C9.15667 14.357 11.7001 13.9132 13.8497 14.7544C14.164 14.8774 14.395 15.1506 14.4641 15.4809C14.5332 15.8112 14.431 16.1541 14.1924 16.3928L11.6588 18.9263C11.2683 19.3169 11.2683 19.95 11.6588 20.3406C12.0493 20.7311 12.6825 20.7311 13.073 20.3406L15.6066 17.807C15.8452 17.5683 16.1881 17.4662 16.5184 17.5353C16.8488 17.6043 17.122 17.8354 17.2449 18.1497C18.0861 20.2993 17.6424 22.8427 15.9017 24.5834C14.3302 26.1548 12.1054 26.6712 10.1051 26.1369L7.12132 29.1207C5.94975 30.2922 4.05025 30.2922 2.87868 29.1207C1.70711 27.9491 1.70711 26.0496 2.87868 24.878L5.86247 21.8942C5.32813 19.894 5.84451 17.6691 7.41593 16.0977ZM11.4075 16.3493C10.4681 16.4078 9.54629 16.7958 8.83014 17.5119C7.67134 18.6707 7.37072 20.3653 7.93418 21.8029C8.07923 22.173 7.99132 22.5938 7.71024 22.8749L4.29289 26.2922C3.90237 26.6828 3.90237 27.3159 4.29289 27.7065C4.68342 28.097 5.31658 28.097 5.70711 27.7065L9.12446 24.2891C9.40553 24.008 9.82639 23.9201 10.1965 24.0652C11.6341 24.6286 13.3286 24.328 14.4874 23.1692C15.2036 22.4531 15.5916 21.5313 15.6501 20.5919L14.4872 21.7548C13.3157 22.9263 11.4162 22.9263 10.2446 21.7548C9.073 20.5832 9.07302 18.6837 10.2446 17.5121L11.4075 16.3493Z" fill="#0D0F13"/>
</svg>

<svg fill="none" xmlns="http://www.w3.org/2000/svg" viewBox="0 0 32 32">
  <path fill-rule="evenodd" clip-rule="evenodd" d="M6 4a2 2 0 0 1 2-2h7.586A2 2 0 0 1 17 2.586L25.414 11A2 2 0 0 1 26 12.414V28a2 2 0 0 1-2 2h-6a1 1 0 1 1 0-2h6V13h-7a2 2 0 0 1-2-2V4H8v8a1 1 0 1 1-2 0V4Zm11 1.414V11h5.586L17 5.414Z" fill="currentColor"/>
  <path fill-rule="evenodd" clip-rule="evenodd" d="M7.416 16.098a6.004 6.004 0 0 1 6.434-1.343 1 1 0 0 1 .342 1.638l-2.533 2.534a1 1 0 0 0 1.414 1.414l2.534-2.533a1 1 0 0 1 1.638.342 6.003 6.003 0 0 1-1.343 6.434 5.998 5.998 0 0 1-5.797 1.553l-2.984 2.984A3 3 0 0 1 2.88 24.88l2.983-2.984a5.997 5.997 0 0 1 1.554-5.797Zm3.992.252a4.001 4.001 0 0 0-3.473 5.454 1 1 0 0 1-.225 1.071l-3.417 3.418a1 1 0 0 0 1.414 1.414l3.417-3.417a1 1 0 0 1 1.072-.224 4.001 4.001 0 0 0 5.454-3.473l-1.163 1.162a3 3 0 0 1-4.242-4.242l1.163-1.163Z" fill="currentColor"/>
</svg>
